symbols/web/scoreboard/materialsymbolsrounded/scoreboard_24px.svg

<svg xmlns="http://www.w3.org/2000/svg" height="24" width="24"><path d="M15.5 15q-.425 0-.712-.288-.288-.287-.288-.712v-4q0-.425.288-.713Q15.075 9 15.5 9H18q.425 0 .712.287Q19 9.575 19 10v4q0 .425-.288.712Q18.425 15 18 15Zm.5-1.5h1.5v-3H16ZM6 15q-.425 0-.713-.288Q5 14.425 5 14v-1.5q0-.425.287-.713.288-.287.713-.287h2v-1H5.75q-.325 0-.537-.213Q5 10.075 5 9.75q0-.325.213-.538Q5.425 9 5.75 9H8.5q.425 0 .713.287.287.288.287.713v1.5q0 .425-.287.712-.288.288-.713.288h-2v1h2.25q.325 0 .538.212.212.213.212.538 0 .325-.212.537Q9.075 15 8.75 15Zm6-4q-.325 0-.537-.213-.213-.212-.213-.537 0-.325.213-.538.212-.212.537-.212.325 0 .538.212.212.213.212.538 0 .325-.212.537Q12.325 11 12 11Zm0 3.5q-.325 0-.537-.213-.213-.212-.213-.537 0-.325.213-.538Q11.675 13 12 13q.325 0 .538.212.212.213.212.538 0 .325-.212.537-.213.213-.538.213ZM4 20q-.825 0-1.412-.587Q2 18.825 2 18V6q0-.825.588-1.412Q3.175 4 4 4h3V3q0-.425.287-.713Q7.575 2 8 2t.713.287Q9 2.575 9 3v1h6V3q0-.425.288-.713Q15.575 2 16 2t.712.287Q17 2.575 17 3v1h3q.825 0 1.413.588Q22 5.175 22 6v12q0 .825-.587 1.413Q20.825 20 20 20Zm0-2h7.25v-.75q0-.325.213-.538.212-.212.537-.212.325 0 .538.212.212.213.212.538V18H20V6h-7.25v.75q0 .325-.212.537-.213.213-.538.213-.325 0-.537-.213-.213-.212-.213-.537V6H4v12Zm0 0V6v12Z"/></svg>

<svg xmlns="http://www.w3.org/2000/svg" height="24" width="24"><path d="M15.5 15Q15.075 15 14.788 14.712Q14.5 14.425 14.5 14V10Q14.5 9.575 14.788 9.287Q15.075 9 15.5 9H18Q18.425 9 18.712 9.287Q19 9.575 19 10V14Q19 14.425 18.712 14.712Q18.425 15 18 15ZM16 13.5H17.5V10.5H16ZM6 15Q5.575 15 5.287 14.712Q5 14.425 5 14V12.5Q5 12.075 5.287 11.787Q5.575 11.5 6 11.5H8V10.5H5.75Q5.425 10.5 5.213 10.287Q5 10.075 5 9.75Q5 9.425 5.213 9.212Q5.425 9 5.75 9H8.5Q8.925 9 9.213 9.287Q9.5 9.575 9.5 10V11.5Q9.5 11.925 9.213 12.212Q8.925 12.5 8.5 12.5H6.5V13.5H8.75Q9.075 13.5 9.288 13.712Q9.5 13.925 9.5 14.25Q9.5 14.575 9.288 14.787Q9.075 15 8.75 15ZM12 11Q11.675 11 11.463 10.787Q11.25 10.575 11.25 10.25Q11.25 9.925 11.463 9.712Q11.675 9.5 12 9.5Q12.325 9.5 12.538 9.712Q12.75 9.925 12.75 10.25Q12.75 10.575 12.538 10.787Q12.325 11 12 11ZM12 14.5Q11.675 14.5 11.463 14.287Q11.25 14.075 11.25 13.75Q11.25 13.425 11.463 13.212Q11.675 13 12 13Q12.325 13 12.538 13.212Q12.75 13.425 12.75 13.75Q12.75 14.075 12.538 14.287Q12.325 14.5 12 14.5ZM4 20Q3.175 20 2.588 19.413Q2 18.825 2 18V6Q2 5.175 2.588 4.588Q3.175 4 4 4H7V3Q7 2.575 7.287 2.287Q7.575 2 8 2Q8.425 2 8.713 2.287Q9 2.575 9 3V4H15V3Q15 2.575 15.288 2.287Q15.575 2 16 2Q16.425 2 16.712 2.287Q17 2.575 17 3V4H20Q20.825 4 21.413 4.588Q22 5.175 22 6V18Q22 18.825 21.413 19.413Q20.825 20 20 20ZM4 18H11.25Q11.25 18 11.25 18Q11.25 18 11.25 18Q11.25 18 11.25 17.788Q11.25 17.575 11.25 17.25Q11.25 16.925 11.463 16.712Q11.675 16.5 12 16.5Q12.325 16.5 12.538 16.712Q12.75 16.925 12.75 17.25Q12.75 17.575 12.75 17.788Q12.75 18 12.75 18Q12.75 18 12.75 18Q12.75 18 12.75 18H20Q20 18 20 18Q20 18 20 18V6Q20 6 20 6Q20 6 20 6H12.75Q12.75 6 12.75 6Q12.75 6 12.75 6Q12.75 6 12.75 6.213Q12.75 6.425 12.75 6.75Q12.75 7.075 12.538 7.287Q12.325 7.5 12 7.5Q11.675 7.5 11.463 7.287Q11.25 7.075 11.25 6.75Q11.25 6.425 11.25 6.213Q11.25 6 11.25 6Q11.25 6 11.25 6Q11.25 6 11.25 6H4Q4 6 4 6Q4 6 4 6V18Q4 18 4 18Q4 18 4 18ZM4 18Q4 18 4 18Q4 18 4 18Q4 18 4 18Q4 18 4 18Q4 18 4 18Q4 18 4 18V6Q4 6 4 6Q4 6 4 6Q4 6 4 6Q4 6 4 6Q4 6 4 6Q4 6 4 6Q4 6 4 6Q4 6 4 6V18Q4 18 4 18Q4 18 4 18Z"/></svg>
